X: 42277
T: Weaver Flynn
R: reel
M: 4/4
K: Dmajor
|:A,|DF (3FEF ADFA|fedf efdB|ADFA dAFD|EA,CE GECE|
DFF2 ADFA|fedf efdB|ADFA dAFD|EA,CE D3:|
|:A,G,A,E EFGE|FD (3DDD FGAB|cA (3AAA dfab|afdf g2fe|
dfed BAdB|AdFA EFDF|dFAd FAdF|EA,CE D4:|

